!!!!SEGMENT: pl-kk--kk-i-328--004_constanzi--beatus-vir-exortum-est.krn
!!!cenid: 17xx:2142
!!!COM: Constanzi
!!!COM-rismID: pe50046616
!!!CDT:
!!!CNT:
!!!OPR: Beatus vir
!!!OTL: Exortum est
!!!OMV: 004
!!!PDT:
!!!AGN: Sacred
!!!SMS-siglum: PL-Kk
!!!SMS-shelfmark: Kk.I.328
!!!SMS-shelfwork: 001-004 M
!!!SMS-variant:
!!!SMS-altvar:
!!!NIFC-rismSourceID: 1001145915
!!!NIFC-islandoraID: pl-kk:5487
!!!URL-pdf-islandora: https://repozytorium.nifc.pl/islandora/object/pl-kk%3A5487/datastream/PDF/view
!!!URL-scan: https://polish.musicsources.pl/pl/lokalizacje/galeria/rekopisy/5947 @EN{Scan on Polish Music Herritage in Open Access Website} @PL{Skany w portalu Dziedzictwo Muzyki Polskiej w otwartym dostępie}
!!!ONB-nifc: UWAGA: części Beatus vir: 1. Beatus vir, 2. Potens in terra, 3. Gloria et divitiae, 4. Exortum est 5. Iucundus homo, 6. In memoria, 7. Paratum cor eius, 8. Peccator videbit, 9. Gloria patri
!!!AIN: 2 alto 1 empty 1 organ 1 tenor 2 vox
!!!key:
**kern	**fb	**kern	**text	**kern	**text	**kern	**text	**kern	**text	**kern	**kern
*part7	*	*part6	*part6	*part5	*part5	*part4	*part4	*part3	*part3	*part2	*part1
*	*	*group2	*	*group2	*	*group2	*	*group2	*	*group1	*group1
*staff7	*	*staff6	*staff6	*staff5	*staff5	*staff4	*staff4	*staff3	*staff3	*staff2	*staff1
*Iorgan	*	*Iempty	*	*Itenor	*	*Ialto	*	*Ivox	*	*Ialto	*Ivox
*I"Organo	*	*I"Baſso [di ripieno]	*	*I"Tenore [di ripieno]	*	*I"Alto di ripieno	*	*I"Canto di ripieno	*	*I"Alto à 2.e di Concerto	*I"Canto à 2.e di concerto
*I'org	*	*I'B rip	*	*I'T rip	*	*I'A rip	*	*I'S rip	*	*I'A conc	*I'S conc
*clefF4	*	*clefF4	*	*clefC4	*	*clefC3	*	*clefC1	*	*clefC3	*clefC1
*k[f#]	*	*k[f#]	*	*k[f#]	*	*k[f#]	*	*k[f#]	*	*k[f#]	*k[f#]
*G:	*	*G:	*	*G:	*	*G:	*	*G:	*	*G:	*G:
*M2/1	*	*M2/1	*	*M2/1	*	*M2/1	*	*M2/1	*	*M2/1	*M2/1
*met(c|)	*	*met(c|)	*	*met(c|)	*	*met(c|)	*	*met(c|)	*	*met(c|)	*met(c|)
=1	=1	=1	=1	=1	=1	=1	=1	=1	=1	=1	=1
*all\right	*	*all\right	*	*all\right	*	*all\right	*	*all\right	*	*	*
*clefC1	*	*	*	*	*	*	*	*	*	*	*
!LO:TX:a:t=Tutti \nMaestoso Stac.to	!	!LO:TX:a:t=Tutti \nMaestoso Stac.to	!	!LO:TX:a:t=Tutti Stac.to	!	!LO:TX:a:t=Tutti Stac.to	!	!	!	!	!LO:TX:a:t=P:problem=w utworze zwykłe kreski taktowe (konsultacja z J.I)
!LO:TX:b:t=Exortum	!	!LO:TX:b:t=9	!	!LO:TX:b:t=6	!	!LO:TX:b:t=3	!	!LO:TX:a:t=Tutti Stac.to	!	!LO:TX:a:t=Exertum est Tacet	!LO:TX:a:t=Exertum est Tacet
1dd	.	00r	.	00r	.	0r	.	1dd	E-	0ryy	0ryy
*2\right	*	*	*	*	*	*	*	*2\right	*	*	*
2b\	.	.	.	.	.	.	.	2b\	-xor-	.	.
2g\	.	.	.	.	.	.	.	2g\	.	.	.
=2	=2	=2	=2	=2	=2	=2	=2	=2	=2	=2	=2
!	!	!	!	!	!	!LO:TX:t=P:problem=kreska taktowa	!	!	!	!	!
1a	.	.	.	.	.	1r	.	1aM	-tum	0ryy	0ryy
*clefC3	*	*	*	*	*	*	*	*	*	*	*
*k[f#]	*	*	*	*	*	*	*	*	*	*	*
1f#	.	.	.	.	.	1g	E-	1g	est	.	.
=3	=3	=3	=3	=3	=3	=3	=3	=3	=3	=3	=3
*	*	*	*	*	*	*2\right	*	*	*	*	*
2f#\	.	00r	.	0r	.	2f#\	-xor-	2r	.	0ryy	0ryy
!	!	!	!	!	!	!LO:TX:t=P:problem=kreska taktowa	!	!	!	!	!
2d\	.	.	.	.	.	2d\	.	2dd\	in	.	.
!LO:LB:g=original	!	!	!	!	!	!	!	!LO:LB:g=original	!	!	!
1e	7	.	.	.	.	1eM	-tum	2dd\	te-	.	.
.	#6	.	.	.	.	.	.	2cc#X\	-ne-	.	.
!	!	!	!	!	!	!LO:LB:g=original	!	!	!	!	!
=4-	=4	=4	=4	=4	=4	=4	=4	=4	=4	=4	=4
*clefC4	*	*	*	*	*	*	*	*	*	*	*
*k[f#]	*	*	*	*	*	*	*	*	*	*	*
!	!	!	!	!LO:TX:t=P:problem=kreska taktowa	!	!LO:TX:t=P:problem=kreska taktowa	!	!	!	!	!
1d	.	.	.	1d	E-	1d	est	4dd\	-bris	0ryy	0ryy
.	.	.	.	.	.	.	.	(4dd\	lu-	.	.
.	.	.	.	.	.	.	.	4ee\)	.	.	.
.	.	.	.	.	.	.	.	4ff#\	-men	.	.
*	*	*	*	*2\right	*	*	*	*	*	*	*
2B\	.	.	.	2B\	-xor-	2r	.	4gg\	re-	.	.
.	.	.	.	.	.	.	.	4g\	.	.	.
2G\	.	.	.	2G\	.	2g\	in	4b\	.	.	.
.	.	.	.	.	.	.	.	4dd\	.	.	.
=5	=5	=5	=5	=5	=5	=5	=5	=5	=5	=5	=5
*	*above	*	*	*	*	*	*	*	*	*	*
!	!	!LO:TX:t=P:problem=kreska taktowa	!	!	!	!	!	!	!	!	!
1A	7	1r	.	1A	-tum	2g\	te-	4ccn\	.	0ryy	0ryy
.	6	.	.	.	.	.	.	8b\L	.	.	.
.	.	.	.	.	.	.	.	8cc\J	.	.	.
.	.	.	.	.	.	2f#\	-ne-	4a\	.	.	.
.	.	.	.	.	.	.	.	4cc\	.	.	.
*clefF4	*	*	*	*	*	*	*	*	*	*	*
*k[f#]	*	*	*	*	*	*	*	*	*	*	*
!	!	!	!	!	!	!	!	!LO:LB:g=original	!	!	!
1G	.	1G	E-	1G	est	4g\	-briſ	2b\	.	.	.
.	.	.	.	.	.	4g\	lu-	.	.	.	.
.	.	.	.	.	.	4b\	.	2g\	.	.	.
.	.	.	.	.	.	4cc#X\	-men	.	.	.	.
!	!	!	!	!LO:LB:g=original	!	!	!	!	!	!	!
=6	=6	=6	=6	=6	=6	=6	=6	=6	=6	=6	=6
*	*	*2\right	*	*	*	*	*	*	*	*	*
2F#\	.	2F#\	-xor-	2r	.	4dd\	re-	1a	.	0ryy	0ryy
.	.	.	.	.	.	4d\	.	.	.	.	.
!	!	!	!	!LO:TX:t=P:problem=kreska taktowa	!	!	!	!	!	!	!
2D\	.	2D\	.	2d\	in	4f#\	.	.	.	.	.
!	!	!	!	!	!	!LO:TX:t=P:problem=kreska taktowa	!	!	!	!	!
.	.	.	.	.	.	4a\	.	.	.	.	.
!	!	!	!	!	!	!LO:LB:g=original	!	!	!	!	!
1E	7	1E	-tum	2d\	te-	4g\	.	1ee	.	.	.
.	#6	.	.	.	.	8f#\L	.	.	.	.	.
.	.	.	.	.	.	8g\J	.	.	.	.	.
.	.	.	.	2c#X\	-ne-	4e\	.	.	.	.	.
.	.	.	.	.	.	4a\	.	.	.	.	.
!LO:LB:g=original	!	!LO:LB:g=original	!	!	!	!	!	!	!	!	!
=7	=7	=7	=7	=7	=7	=7	=7	=7	=7	=7	=7
4D\	.	4D\	est	4d\	-bris	2f#\	.	2a\	-ctis	0ryy	0ryy
4d\	.	4d\	in	(4d\	lu-	.	.	.	.	.	.
!	!	!	!	!	!	!	!	!LO:TX:t=P:problem=kreska taktowa	!	!	!
4c\	.	4c\	te-	4e\)	.	[<2g\	.	2r	.	.	.
8B\L	.	8B\L	.	4f#\	-men	.	.	.	.	.	.
!LO:TX:t=P:problem=kreska taktowa	!	!	!	!	!	!	!	!	!	!	!
8A\J	.	8A\J	.	.	.	.	.	.	.	.	.
!	!	!	!	!	!	!	!	!LO:TX:t=P:problem=kreska taktowa	!	!	!
!	!	!	!	!	!	!	!	!LO:TX:b:t=2	!	!	!
2G\	.	2G\	.	4g\	re-	4g\]	.	0r	.	.	.
.	.	.	.	4G/	.	4d\	.	.	.	.	.
2GG/	.	2G\	.	4B/	.	[<2g\	.	.	.	.	.
.	.	.	.	4d\	.	.	.	.	.	.	.
!	!	!	!	!LO:LB:g=original	!	!	!	!	!	!	!
=8	=8	=8	=8	=8	=8	=8	=8	=8	=8	=8	=8
2C\	6 5	1A	-ne-	4c\	.	2g\]	.	.	.	0ryy	0ryy
.	.	.	.	8B\L	.	.	.	.	.	.	.
.	.	.	.	8c\J	.	.	.	.	.	.	.
2D\	.	.	.	4A\	.	2f#\	.	.	.	.	.
.	.	.	.	4d\	.	.	.	.	.	.	.
2.G\	.	4G\	-bris	4.B/	.	1g	-ctis	1gg	e-	.	.
.	.	(4G\	lu-	.	.	.	.	.	.	.	.
.	.	.	.	8A/	.	.	.	.	.	.	.
.	.	4B\)	.	2G/	-ctis	.	.	.	.	.	.
4E\	.	4c#X\	-men	.	.	.	.	.	.	.	.
!	!	!	!	!	!	!LO:LB:g=original	!	!	!	!	!
=9	=9	=9	=9	=9	=9	=9	=9	=9	=9	=9	=9
2D\	.	4d\	re-	4r	.	2r	.	2ff#\	-xor-	0ryy	0ryy
.	.	4D\	.	8f#\L	lu-	.	.	.	.	.	.
.	.	.	.	8g\J	.	.	.	.	.	.	.
2F#\	.	1d	.	4a\	-men	2dd\	in	2dd\	.	.	.
.	.	.	.	4f#\	.	.	.	.	.	.	.
!	!	!	!	!	!	!	!	!LO:LB:g=original	!	!	!
2G\	.	.	.	2e\	re-	2g\	te-	1ee	-tu(m)	.	.
2A\	#3	2c#X\	.	[2A\	.	2a\	-ne-	.	.	.	.
!LO:PB:g=original	!	!LO:LB:g=original	!	!LO:PB:g=original	!	!	!	!	!	!	!
=10	=10	=10	=10	=10	=10	=10	=10	=10	=10	=10	=10
4D\	.	4d\	ctis	2A\]	.	2d\	-bris	4dd\	est	0ryy	0ryy
4d\	.	(4d\	lu-	.	.	.	.	4dd\	in	.	.
4B\	.	4B\)	.	[2d\	.	2dd\	in	4ee\	te-	.	.
4A\	.	4A\	-men	.	.	.	.	4ff#\	.	.	.
2.G\	.	2G\	re-	4d\]	.	2b\	te-	[1gg	.	.	.
.	.	.	.	8B\L	.	.	.	.	.	.	.
.	.	.	.	8cn\J	.	.	.	.	.	.	.
.	.	4B\	.	2d\	.	2g\	.	.	.	.	.
4B\	.	4d\	.	.	.	.	.	.	.	.	.
=11	=11	=11	=11	=11	=11	=11	=11	=11	=11	=11	=11
2c\	.	4c\	.	2e\	.	1a	-ne-	2gg\]	.	0ryy	0ryy
.	.	8B\L	.	.	.	.	.	.	.	.	.
.	.	8c\J	.	.	.	.	.	.	.	.	.
!LO:TX:t=P:problem=kreska taktowa	!	!	!	!LO:TX:t=P:problem=kreska taktowa	!	!	!	!	!	!	!
2d\	.	4A\	.	2d\	-ctis	.	.	2ff#\	-ne-	.	.
.	.	4d\	.	.	.	.	.	.	.	.	.
2G\	.	2B\	.	1g	E-	1g	-bris	4gg\	-briſ	.	.
.	.	.	.	.	.	.	.	4g\	lu-	.	.
*clefC4	*	*	*	*	*	*	*	*	*	*	*
*k[f#]	*	*	*	*	*	*	*	*	*	*	*
2g\	.	2G\	-ctis	.	.	.	.	4b\	.	.	.
.	.	.	.	.	.	.	.	4cc#X\	-men	.	.
!	!	!LO:LB:g=original	!	!LO:LB:g=original	!	!LO:PB:g=original	!	!	!	!	!
=12	=12	=12	=12	=12	=12	=12	=12	=12	=12	=12	=12
!	!	!LO:TX:b:t=2	!	!	!	!	!	!	!	!	!
2f#\	.	0r	.	2f#\	-xor-	2r	.	4dd\	re-	0ryy	0ryy
.	.	.	.	.	.	.	.	4dd\	.	.	.
*clefF4	*	*	*	*	*	*	*	*	*	*	*
*k[f#]	*	*	*	*	*	*	*	*	*	*	*
!LO:TX:t=P:problem=kreska taktowa	!	!	!	!	!	!	!	!	!	!	!
2d\	.	.	.	2d\	.	1dd	lu-	4ff#\	.	.	.
!	!	!	!	!	!	!	!	!LO:TX:t=P:problem=4gg poprawione na 4aa	!	!	!
.	.	.	.	.	.	.	.	4aa\	.	.	.
!LO:LB:g=original	!	!	!	!	!	!	!	!LO:LB:g=original	!	!	!
2G\	.	.	.	1e	-tum	.	.	4gg\	.	.	.
.	.	.	.	.	.	.	.	8ff#\L	.	.	.
.	.	.	.	.	.	.	.	8gg\J	.	.	.
2A\	.	.	.	.	.	2cc#X\	-men	4ee\	.	.	.
.	.	.	.	.	.	.	.	4aa\	.	.	.
=13	=13	=13	=13	=13	=13	=13	=13	=13	=13	=13	=13
!	!	!	!	!LO:TX:t=P:problem=kreska taktowa	!	!	!	!	!	!	!
2D\	.	1d	E-	1d	est	4dd\	re-	4ff#\	.	0ryy	0ryy
.	.	.	.	.	.	4d\	.	8dd\L	.	.	.
.	.	.	.	.	.	.	.	8ee\J	.	.	.
2d\	.	.	.	.	.	4e\	.	4ff#\	.	.	.
.	.	.	.	.	.	4f#\	.	4ee\	.	.	.
2B\	.	2B\	-xor-	2r	.	4g\	.	2.dd\	.	.	.
.	.	.	.	.	.	4g\	.	.	.	.	.
2G\	.	2G\	.	2g\	in	4b\	.	.	.	.	.
.	.	.	.	.	.	4dd\	.	4gg\	-ctis	.	.
=14	=14	=14	=14	=14	=14	=14	=14	=14	=14	=14	=14
2Cn\	6 5	1A	-tus	2g\	tae-	4ccn\	.	2ee\	lu-	0ryy	0ryy
.	.	.	.	.	.	8b\L	.	.	.	.	.
.	.	.	.	.	.	8cc\J	.	.	.	.	.
2D\	#	.	.	2f#\	-ne-	4a\	.	2dd\	-men	.	.
.	.	.	.	.	.	4dd\	.	.	.	.	.
!	!	!	!	!	!	!LO:LB:g=original	!	!LO:PB:g=original	!	!	!
2.G\	.	1G	est	1g	-bris	4b\	.	4dd\	re-	.	.
.	.	.	.	.	.	4g\	.	8b\L	.	.	.
.	.	.	.	.	.	.	.	8cc\J	.	.	.
.	.	.	.	.	.	4b\	.	4dd\	.	.	.
4E\	.	.	.	.	.	4cc#X\	.	4ee\	.	.	.
!	!	!	!	!LO:LB:g=original	!	!	!	!	!	!	!
=15	=15	=15	=15	=15	=15	=15	=15	=15	=15	=15	=15
2D\	.	2r	.	2.f#\	lu-	4dd\	.	1a	.	0ryy	0ryy
.	.	.	.	.	.	4d\	.	.	.	.	.
2F#\	.	2d\	in	.	.	4f#\	.	.	.	.	.
.	.	.	.	4d\	-men	4a\	.	.	.	.	.
!LO:LB:g=original	!	!	!	!	!	!	!	!	!	!	!
2G\	.	2d\	te-	1e	re-	4g\	.	2b\	.	.	.
.	.	.	.	.	.	8f#\L	.	.	.	.	.
.	.	.	.	.	.	8g\J	.	.	.	.	.
2A\	#3	2c#X\	-ne-	.	.	4e\	.	2a\	.	.	.
.	.	.	.	.	.	4a\	.	.	.	.	.
!	!	!LO:PB:g=original	!	!	!	!	!	!	!	!	!
=16	=16	=16	=16	=16	=16	=16	=16	=16	=16	=16	=16
!	!	!	!	!	!	!	!	!LO:SIC:v:s=2f#	!	!	!
4D\	.	2d\	-bris	2d\	-ctis	4f#\	.	2g\	-ctis	0ryy	0ryy
4E\	.	.	.	.	.	4e\	.	.	.	.	.
4F#\	.	2A\	in	2d\	e-	4f#\	.	1dd	lu-	.	.
4D\	.	.	.	.	.	4d\	.	.	.	.	.
!	!	!	!	!	!	!LO:LB:g=original	!	!	!	!	!
2G\	.	4B\	te-	2B\	-xor-	2g\	-ctis	.	.	.	.
.	.	8B\L	.	.	.	.	.	.	.	.	.
.	.	8cn\J	.	.	.	.	.	.	.	.	.
2GG/	.	4d\	.	2G\	.	2r	.	2gg\	-men	.	.
.	.	4B\	.	.	.	.	.	.	.	.	.
!	!	!	!	!	!	!	!	!LO:LB:g=original	!	!	!
=17	=17	=17	=17	=17	=17	=17	=17	=17	=17	=17	=17
!	!	!	!	!	!	!LO:TX:t=P:problem=kreska taktowa	!	!	!	!	!
!	!	!	!	!	!	!LO:TX:b:t=1	!	!	!	!	!
2C\	6 5	4c\	.	1A	-tum	1r	.	2gg\	re-	0ryy	0ryy
.	.	8B\L	.	.	.	.	.	.	.	.	.
.	.	8c\J	.	.	.	.	.	.	.	.	.
2D\	.	4A\	.	.	.	.	.	2ff#\	.	.	.
!	!	!LO:TX:t=P:problem=kreska taktowa	!	!	!	!	!	!	!	!	!
.	.	4d\	.	.	.	.	.	.	.	.	.
!	!	!LO:LB:g=original	!	!	!	!	!	!	!	!	!
2.G\	.	4B\	.	2G/	est	1g	E-	4gg\	.	.	.
.	.	2G\	.	.	.	.	.	4g\	.	.	.
.	.	.	.	2r	.	.	.	4b\	.	.	.
4E\	#6	4E\	-ne-	.	.	.	.	4cc#X\	.	.	.
!LO:LB:g=original	!	!LO:LB:g=original	!	!	!	!	!	!	!	!	!
=18	=18	=18	=18	=18	=18	=18-	=18	=18	=18	=18	=18
2D\	.	2D\	-bris	2r	.	2f#\	-xor-	4dd\	.	0ryy	0ryy
.	.	.	.	.	.	.	.	4d/	.	.	.
!	!	!	!	!	!	!LO:TX:t=P:problem=kreska taktowa	!	!	!	!	!
2d\	.	2d\	lu-	1d	lu-	2d\	.	4f#/	.	.	.
.	.	.	.	.	.	.	.	4a/	.	.	.
2G\	.	2G\	.	.	.	1e	-tum	4g/	.	.	.
.	.	.	.	.	.	.	.	8f#/L	.	.	.
.	.	.	.	.	.	.	.	8g/J	.	.	.
*	*below	*	*	*	*	*	*	*	*	*	*
2A\	#3	2A\	-men	2c#X\	-men	.	.	4e/	.	.	.
.	.	.	.	.	.	.	.	4a\	.	.	.
!	!	!	!	!LO:LB:g=original	!	!	!	!LO:LB:g=original	!	!	!
=19	=19	=19	=19	=19	=19	=19	=19	=19	=19	=19	=19
4D\	.	4D\	re-	1d	lu-	2d\	est	4f#/	.	0ryy	0ryy
4G\	.	4G\	.	.	.	.	.	4d/	.	.	.
4B\	.	4B\	.	.	.	2g\	in	2b\	.	.	.
4c#X\	.	4c#X\	.	.	.	.	.	.	.	.	.
4d\	.	4d\	.	1d	-men	2g\	te-	1a	.	.	.
4D\	.	4D\	.	.	.	.	.	.	.	.	.
4F#\	.	4F#\	.	.	.	2f#\	.	.	.	.	.
4D\	.	4D\	.	.	.	.	.	.	.	.	.
!	!	!LO:LB:g=original	!	!	!	!LO:LB:g=original	!	!	!	!	!
=20	=20	=20	=20	=20	=20	=20	=20	=20	=20	=20	=20
*	*above	*	*	*	*	*	*	*	*	*	*
1E	7	1E	.	2d\	re-	1g	-ne-	1g	.	0ryy	0ryy
.	#6	.	.	2c#X\	.	.	.	.	.	.	.
2D\	.	2D\	-ctis	2d\	-ctis	2a\	-bris	2f#/	-ctis	.	.
2D\	.	2d\	mi-	2f#\	mi-	2r	.	2r	.	.	.
!LO:LB:g=original	!	!	!	!	!	!	!	!	!	!	!
=21	=21	=21	=21	=21	=21	=21	=21	=21	=21	=21	=21
!	!	!	!	!	!	!	!	!LO:TX:t=P:problem=kreska taktowa	!	!	!
!	!	!	!	!	!	!	!	!LO:TX:b:t=1	!	!	!
2C#X\	6	2c#X\	-se-	2e\	-se-	1a	mi-	1r	.	0ryy	0ryy
2D#X\	.	2d#X\	-ri-	1f#	-ri-	.	.	.	.	.	.
2E\	9	2e\	-cors	.	.	2g\	-se-	2r	.	.	.
2E\	8	2E\	et	4e\	-corſ	2e\	.	2ee\	mi-	.	.
.	.	.	.	4g\	et	.	.	.	.	.	.
!	!	!	!	!LO:LB:g=original	!	!	!	!LO:LB:g=original	!	!	!
=22	=22	=22	=22	=22	=22	=22	=22	=22	=22	=22	=22
*	*below	*	*	*	*	*	*	*	*	*	*
2BB/	4	2BB/	mi-	2f#\	mi-	1f#	-ri-	2ee\	-se-	0ryy	0ryy
.	#3	.	.	.	.	.	.	.	.	.	.
4B\	.	4B\	-se-	2B\	-se-	.	.	2dd#X\	-ri-	.	.
!	!	!LO:TX:t=P:problem=kreska taktowa	!	!	!	!	!	!	!	!	!
4A\	.	4A\	.	.	.	.	.	.	.	.	.
!	!	!LO:LB:g=original	!	!	!	!	!	!	!	!	!
4G#X\	.	4G#X\	-ra-	2B\	-ra-	2e\	-cors	4ee\	-corſ	.	.
4F#\	.	4F#X\	.	.	.	.	.	4ee\	et	.	.
4G#\	.	4G#\	.	[2e\	.	2r	.	4ee\	mi-	.	.
!	!	!	!	!	!	!	!	!LO:TX:t=P:problem=# poprawiony na ♮	!	!	!
4E\	.	4E\	.	.	.	.	.	4ddn\	-se-	.	.
!	!	!	!	!	!	!LO:LB:g=original	!	!	!	!	!
=23	=23	=23	=23	=23	=23	=23	=23	=23	=23	=23	=23
2A\	n3	2A\	-tor	2e\]	.	2r	.	2ccn\	-ra-	0ryy	0ryy
2Cn\	.	2Cn/	et	2e\	.	2a\	et	4b\	.	.	.
.	.	.	.	.	.	.	.	4a\	.	.	.
2D\	n3	2D\	iu-	2fn\	.	2a\	mi-	1b	.	.	.
2E\	#3	2E\	.	4e\	.	2g#X\	-se-	.	.	.	.
.	.	.	.	4d\	.	.	.	.	.	.	.
!LO:LB:g=original	!	!	!	!	!	!	!	!	!	!	!
=24	=24	=24	=24	=24	=24	=24	=24	=24	=24	=24	=24
2AA/	.	2AA/	-stus	4c\	.	2a\	-ra-	1a	.	0ryy	0ryy
.	.	.	.	4A\	.	.	.	.	.	.	.
!	!	!LO:TX:t=P:problem=kreska taktowa	!	!	!	!	!	!	!	!	!
2A\	.	2r	.	4c\	.	2e\	-tor	.	.	.	.
!	!	!	!	!LO:TX:t=P:problem=kreska taktowa	!	!	!	!	!	!	!
.	.	.	.	4d\	.	.	.	.	.	.	.
!	!	!LO:LB:g=original	!	!LO:LB:g=original	!	!	!	!LO:LB:g=original	!	!	!
2E\	n3	2r	.	1e	.	4r	.	1b	-tor	.	.
.	.	.	.	.	.	4e\	et	.	.	.	.
[2E\	.	2E\	et	.	.	4gn\	mi-	.	.	.	.
.	.	.	.	.	.	4b\	-se-	.	.	.	.
=25	=25	=25	=25	=25-	=25	=25	=25	=25	=25	=25	=25
!	!	!	!	!	!	!	!	!LO:TX:t=P:problem=kreska taktowa	!	!	!
!	!	!	!	!LO:TX:t=P:problem=kreska taktowa	!	!	!	!LO:TX:b:t=1	!	!	!
2E\]	.	2E\	mi-	1f#X	.	4a\	-ra-	1r	.	0ryy	0ryy
.	.	.	.	.	.	8g\L	.	.	.	.	.
.	.	.	.	.	.	8a\J	.	.	.	.	.
2D#X\	.	2D#X\	-se-	.	.	4f#\	.	.	.	.	.
!	!	!	!	!	!	!LO:TX:t=P:problem=kreska taktowa	!	!	!	!	!
.	.	.	.	.	.	4b\	.	.	.	.	.
!	!	!	!	!	!	!LO:LB:g=original	!	!	!	!	!
4E\	.	4E\	-ra-	1B	-tor	2.g\	.	1ee	et	.	.
4e\	.	4e\	.	.	.	.	.	.	.	.	.
4c\	.	4c\	.	.	.	.	.	.	.	.	.
*	*above	*	*	*	*	*	*	*	*	*	*
4B\	#6	4B\	.	.	.	4g#X\	.	.	.	.	.
=26	=26	=26	=26	=26	=26	=26	=26	=26	=26	=26	=26
!	!	!	!	!LO:TX:t=P:problem=kreska taktowa	!	!	!	!	!	!	!
!	!	!	!	!LO:TX:b:t=1	!	!	!	!	!	!	!
4A\	.	4A\	.	1r	.	2a\	-tor	2ccn\	mi-	0ryy	0ryy
8A\L	.	8A\L	.	.	.	.	.	.	.	.	.
8B\J	.	8B\J	.	.	.	.	.	.	.	.	.
!LO:LB:g=original	!	!	!	!	!	!	!	!LO:TX:t=P:problem=kreska taktowa	!	!	!
4cn\	.	4c\	.	.	.	2a\	et	2a\	-se-	.	.
!LO:TX:t=P:problem=kreska taktowa	!	!LO:TX:t=P:problem=kreska taktowa	!	!	!	!	!	!	!	!	!
4A\	.	4A\	.	.	.	.	.	.	.	.	.
!	!	!LO:LB:g=original	!	!	!	!	!	!	!	!	!
2D\	n3	2D\	.	2r	.	2a\	iu-	1b	-ra-	.	.
2E\	#	2E\	.	2e\	et	2g#X\	.	.	.	.	.
=27	=27	=27	=27	=27	=27	=27	=27	=27	=27	=27	=27
2A\	.	2A\	.	2e\	mi-	2a\	-stus	4cc\	.	0ryy	0ryy
.	.	.	.	.	.	.	.	4b\	.	.	.
!	!	!	!	!LO:TX:t=P:problem=kreska taktowa	!	!LO:TX:t=P:problem=kreska taktowa	!	!	!	!	!
2F#X\	.	2F#\	.	2d#X\	-se-	2r	.	2a\	.	.	.
!	!	!	!	!LO:LB:g=original	!	!LO:TX:b:t=1	!	!LO:LB:g=original	!	!	!
2.E\	.	2.E\	-tor	4e\	-ra-	1r	.	2g\	.	.	.
.	.	.	.	4B\	.	.	.	.	.	.	.
.	.	.	.	4e\	.	.	.	[2ee\	.	.	.
4e\	.	4e\	et	4g\	.	.	.	.	.	.	.
!	!	!	!	!	!	!LO:LB:g=original	!	!	!	!	!
=28	=28	=28	=28	=28	=28	=28	=28	=28	=28	=28	=28
*	*below	*	*	*	*	*	*	*	*	*	*
2A#X\	6 5	2A#X\	mi-	2c#X\	.	2r	.	2ee\]	.	0ryy	0ryy
!	!	!	!	!	!	!LO:TX:t=P:problem=kreska taktowa	!	!	!	!	!
2B\	.	2B\	-se-	2d\	-tor	2b\	et	1dd	.	.	.
!LO:LB:g=original	!	!	!	!	!	!	!	!	!	!	!
*	*above	*	*	*	*	*	*	*	*	*	*
1E	7	1E	-ra-	1g	et	2b\	mi-	.	.	.	.
.	#6	.	.	.	.	2e\	-se-	4cc#X\	.	.	.
.	.	.	.	.	.	.	.	4b\	.	.	.
!	!	!LO:LB:g=original	!	!	!	!	!	!	!	!	!
=29	=29	=29	=29	=29	=29	=29	=29	=29	=29	=29	=29
2F#\	#	2F#\	-tor	1f#	iu-	2e\	-ra-	2a#X\	-tor	0ryy	0ryy
2BB/	.	2B\	et	.	.	4d\	-tor	2b\	et	.	.
.	.	.	.	.	.	4e\	et	.	.	.	.
*	*below	*	*	*	*	*	*	*	*	*	*
1F#	4	1F#	ius-	2e\	-stus	1f#	iu-	2b\	iu-	.	.
.	#3	.	.	2c#X\	et	.	.	2a#X\	.	.	.
!	!	!	!	!LO:LB:g=original	!	!	!	!LO:LB:g=original	!	!	!
=30	=30	=30	=30	=30	=30	=30	=30	=30	=30	=30	=30
2BB/	.	2BB/	-tus	2d\	mi-	2f#\	-stus	1b	-stus	0ryy	0ryy
!	!	!	!	!	!	!LO:TX:t=P:problem=kreska taktowa	!	!	!	!	!
*	*above	*	*	*	*	*	*	*	*	*	*
2F#\	6	2F#\	et	2d\	-se-	2r	.	.	.	.	.
!	!	!	!	!	!	!LO:LB:g=original	!	!	!	!	!
!	!	!	!	!	!	!LO:TX:b:t=1	!	!	!	!	!
4E\	n3	4E\	iu-	2d\	-ra-	1r	.	1ggn	mi-	.	.
4D\	.	4D\	.	.	.	.	.	.	.	.	.
4E\	.	4E\	.	2c#X\	.	.	.	.	.	.	.
4AA/	.	4AA/	.	.	.	.	.	.	.	.	.
=31	=31	=31	=31	=31	=31	=31	=31	=31	=31	=31	=31
!	!	!LO:TX:t=P:problem=kreska taktowa	!	!	!	!	!	!	!	!	!
2D\	.	1D	-stus	2d\	-tor	2r	.	2ff#X\	-se-	0ryy	0ryy
!	!	!	!	!	!	!LO:TX:t=P:problem=kreska taktowa	!	!	!	!	!
2F#\	.	.	.	2F#/	et	2a\	et	2dd\	.	.	.
!	!	!LO:LB:g=original	!	!	!	!	!	!	!	!	!
!	!	!LO:TX:b:t=1	!	!	!	!	!	!	!	!	!
4G\	.	1r	.	4G/	iu-	2b\	iu-	1ee	-ri-	.	.
4E\	.	.	.	4E/	.	.	.	.	.	.	.
4A\	.	.	.	2A/	.	2a\	.	.	.	.	.
4AA/	.	.	.	.	.	.	.	.	.	.	.
!LO:LB:g=original	!	!	!	!	!	!	!	!	!	!	!
=32	=32	=32	=32	=32	=32	=32	=32	=32	=32	=32	=32
!	!	!	!	!LO:TX:t=P:problem=kreska taktowa	!	!	!	!	!	!	!
4D\	.	1d	mi-	1D	-stus	1a	-stus	4dd\	-cors	0ryy	0ryy
4d\	.	.	.	.	.	.	.	4dd\	et	.	.
4B\	6	.	.	.	.	.	.	4ee\	mi-	.	.
4A\	.	.	.	.	.	.	.	4ff#\	-se-	.	.
!	!	!	!	!LO:LB:g=original	!	!	!	!	!	!	!
!	!	!	!	!LO:TX:t=P:problem=kreska taktowa	!	!	!	!	!	!	!
!	!	!	!	!LO:TX:b:t=2	!	!	!	!	!	!	!
2G\	.	2B\	-se-	0r	.	4r	.	[1gg	-ra-	.	.
.	.	.	.	.	.	4g\	et	.	.	.	.
2G\	.	2G\	.	.	.	4b\	mi-	.	.	.	.
.	.	.	.	.	.	4dd\	-se-	.	.	.	.
!	!	!	!	!	!	!LO:LB:g=original	!	!LO:LB:g=original	!	!	!
=33	=33	=33	=33	=33	=33	=33	=33	=33	=33	=33	=33
2C\	.	1A	-ri-	.	.	4cc\	-ra-	2gg\]	.	0ryy	0ryy
.	.	.	.	.	.	8b\L	.	.	.	.	.
.	.	.	.	.	.	8cc\J	.	.	.	.	.
2D\	#3	.	.	.	.	4a\	.	2ff#\	.	.	.
!	!	!	!	!	!	!LO:TX:t=P:problem=kreska taktowa	!	!	!	!	!
.	.	.	.	.	.	4dd\	.	.	.	.	.
2G\	.	1G	-cors	1g	mi-	4b\	.	4gg\	.	.	.
.	.	.	.	.	.	8g\L	.	4g\	.	.	.
.	.	.	.	.	.	8a\J	.	.	.	.	.
2E\	5	.	.	.	.	4b\	.	4b\	.	.	.
.	#6	.	.	.	.	4e\	.	4cc#X\	.	.	.
=34	=34	=34	=34	=34	=34	=34	=34	=34	=34	=34	=34
2D\	.	2r	.	2f#\	-se-	2.a\	.	4dd\	.	0ryy	0ryy
.	.	.	.	.	.	.	.	4d/	.	.	.
2d\	.	2d\	mi-	2d\	.	.	.	4f#/	.	.	.
.	.	.	.	.	.	4f#\	.	4a/	.	.	.
2G\	.	2d\	-se-	1e	-ri-	2b\	.	4g/	.	.	.
.	.	.	.	.	.	.	.	8f#/L	.	.	.
.	.	.	.	.	.	.	.	8g/J	.	.	.
*	*below	*	*	*	*	*	*	*	*	*	*
2A\	#3	2c#X\	-ri-	.	.	2a\	-tor	4e/	.	.	.
.	.	.	.	.	.	.	.	4a\	.	.	.
!LO:PB:g=original	!	!LO:LB:g=original	!	!	!	!LO:PB:g=original	!	!LO:LB:g=original	!	!	!
=35	=35	=35	=35	=35	=35	=35	=35	=35	=35	=35	=35
!	!	!	!	!LO:TX:t=P:problem=kreska taktowa	!	!	!	!	!	!	!
2D\	.	2d\	-cors	1d	-cors	(2f#\	et	4a\	.	0ryy	0ryy
.	.	.	.	.	.	.	.	8f#\L	.	.	.
.	.	.	.	.	.	.	.	8g\J	.	.	.
2F#\	.	2A\	et	.	.	2dd\)	.	4a\	.	.	.
.	.	.	.	.	.	.	.	4f#\	.	.	.
*	*above	*	*	*	*	*	*	*	*	*	*
2BB/	6	2B\	mi-	2r	.	2b\	mi-	2g\	-tor	.	.
2GG/	.	2G\	-se-	2g\	et	2g\	-se-	2r	.	.	.
!	!	!	!	!LO:PB:g=original	!	!	!	!	!	!	!
=36	=36	=36	=36	=36	=36	=36	=36	=36	=36	=36	=36
2D\	4	1F#	-ra-	2g\	mi-	1a	-ra-	1dd	et	0ryy	0ryy
.	3	.	.	.	.	.	.	.	.	.	.
2DD/	.	.	.	2f#\	-se-	.	.	.	.	.	.
2GG/	.	1G	-tor	2g\	-ra-	2g\	-tor	2b\	mi-	.	.
2G\	.	.	.	2G/	.	2g\	et	2g\	-se-	.	.
=37	=37	=37	=37	=37	=37	=37	=37	=37	=37	=37	=37
!	!	!LO:TX:t=P:problem=kreska taktowa	!	!	!	!	!	!	!	!	!
!	!	!LO:TX:b:t=1	!	!	!	!	!	!	!	!	!
2C/	.	1r	.	2c\	.	2g\	iu-	1a	-ra-	0ryy	0ryy
2D/	.	.	.	2d\	.	2f#\	.	.	.	.	.
2GG/	.	1G	mi-	2G/	-tor	4g\	-stuſ	1g	-tor	.	.
.	.	.	.	.	.	4g\	et	.	.	.	.
2G\	.	.	.	2r	.	4b\	mi-	.	.	.	.
.	.	.	.	.	.	4cc#X\	-se-	.	.	.	.
!LO:LB:g=original	!	!LO:PB:g=original	!	!	!	!LO:LB:g=original	!	!LO:PB:g=original	!	!	!
=38	=38	=38	=38	=38	=38	=38	=38	=38	=38	=38	=38
!	!	!	!	!LO:TX:b:t=2	!	!	!	!	!	!	!
2F#\	.	2F#\	-se-	0r	.	4dd\	-ra-	2r	.	0ryy	0ryy
.	.	.	.	.	.	4d\	.	.	.	.	.
2D\	.	2D\	.	.	.	4f#\	.	2dd\	et	.	.
.	.	.	.	.	.	4a\	.	.	.	.	.
1E	7	1E	-ri-	.	.	4g\	.	2dd\	mi-	.	.
.	.	.	.	.	.	8f#\L	.	.	.	.	.
.	.	.	.	.	.	8g\J	.	.	.	.	.
.	#6	.	.	.	.	4e\	.	2cc#X\	-se-	.	.
.	.	.	.	.	.	4a\	.	.	.	.	.
=39	=39	=39	=39	=39	=39	=39	=39	=39	=39	=39	=39
2D\	.	2D\	-cor[s]	1d	mi-	4f#\	.	4dd\	-ra-	0ryy	0ryy
.	.	.	.	.	.	4f#\	.	4dd\	.	.	.
!	!	!LO:TX:t=P:problem=kreska taktowa	!	!	!	!	!	!	!	!	!
2d\	.	2r	.	.	.	4g\	.	4ee\	.	.	.
.	.	.	.	.	.	4a\	.	4ff#\	.	.	.
!	!	!	!	!LO:LB:g=original	!	!	!	!	!	!	!
2B\	.	2r	.	2B\	-se-	4d\	.	4gg\	.	.	.
.	.	.	.	.	.	2g\	.	4g\	.	.	.
2G\	.	2G\	et	2G\	.	.	.	4b\	.	.	.
.	.	.	.	.	.	4b\	.	4dd\	.	.	.
!	!	!	!	!	!	!LO:LB:g=original	!	!	!	!	!
=40	=40	=40	=40	=40	=40	=40	=40	=40	=40	=40	=40
2C\	6 5	2G\	mi-	2e\	.	1a	.	4cc\	.	0ryy	0ryy
.	.	.	.	.	.	.	.	8b\L	.	.	.
.	.	.	.	.	.	.	.	8cc\J	.	.	.
2D\	#	2F#\	-se-	2d\	-ri-	.	.	4a\	.	.	.
.	.	.	.	.	.	.	.	4dd\	.	.	.
!	!	!LO:LB:g=original	!	!	!	!	!	!LO:LB:g=original	!	!	!
2.G\	.	4G\	-ra-	2d\	-cors	2g\	-tor	2b\	.	.	.
.	.	4G\	.	.	.	.	.	.	.	.	.
.	.	4B\	.	2r	.	2r	.	[2gg\	.	.	.
4E\	#6	4c#X\	.	.	.	.	.	.	.	.	.
=41	=41	=41	=41	=41	=41	=41	=41	=41	=41	=41	=41
!	!	!	!	!	!	!LO:TX:t=P:problem=kreska taktowa	!	!	!	!	!
!	!	!	!	!	!	!LO:TX:b:t=1	!	!	!	!	!
1D	4	4d\	.	2r	.	1r	.	2gg\]	.	0ryy	0ryy
.	.	4D\	.	.	.	.	.	.	.	.	.
.	3	4F#\	.	2d\	et	.	.	2ff#\	.	.	.
.	.	4A\	.	.	.	.	.	.	.	.	.
2GG/	.	4G\	.	2d\	mi-	1g	et	2.gg\	-tor	.	.
.	.	8F#\L	.	.	.	.	.	.	.	.	.
.	.	8G\J	.	.	.	.	.	.	.	.	.
2AA/	#	4E\	.	2c#X\	-se-	.	.	.	.	.	.
.	.	4A\	.	.	.	.	.	4ee\	et	.	.
!	!	!LO:LB:g=original	!	!LO:LB:g=original	!	!	!	!	!	!	!
=42	=42	=42	=42	=42	=42	=42	=42	=42	=42	=42	=42
4D\	.	4D\	.	2d\	-ra-	2.f#\	mi-	4dd\	mi-	0ryy	0ryy
4D\	.	4d\	.	.	.	.	.	4a\	.	.	.
4d\	.	4d\	.	2f#\	.	.	.	4dd\	-se-	.	.
4B\	.	4B\	.	.	.	4d\	-se-	4ff#\	.	.	.
2G#X\	.	2G#X\	.	2B\	.	2e\	-ra-	1ee	-ra-	.	.
2E\	.	2E\	.	2e\	.	2g#X\	.	.	.	.	.
!	!	!	!	!	!	!LO:LB:g=original	!	!LO:LB:g=original	!	!	!
=43	=43	=43	=43	=43	=43	=43	=43	=43	=43	=43	=43
2A\	4	2A\	.	2.cn\	.	2.a\	.	4ee\	-tor	0ryy	0ryy
.	3	.	.	.	.	.	.	4ee\	et	.	.
2AA/	.	2AA/	-tor	.	.	.	.	4ff#\	mi-	.	.
.	.	.	.	4d\	.	4b\	.	4gg#X\	-se-	.	.
2.A\	.	4r	.	1e	-tor	2.ccn\	.	4aa\	-ra-	.	.
.	.	4A\	et	.	.	.	.	4a\	.	.	.
.	.	4A\	mi-	.	.	.	.	(4ccn\	.	.	.
4G\	.	4G\	-se-	.	.	4b\	.	4ee\)	.	.	.
!LO:LB:g=original	!	!LO:LB:g=original	!	!	!	!	!	!	!	!	!
=44	=44	=44	=44	=44	=44	=44	=44	=44	=44	=44	=44
*	*below	*	*	*	*	*	*	*	*	*	*
1F#	#3	2F#\	-ra-	1c#X	et	4a#X\	.	1ff#	.	0ryy	0ryy
.	.	.	.	.	.	4b\	.	.	.	.	.
.	.	4A#X\	.	.	.	4cc#X\	.	.	.	.	.
.	.	4F#\	.	.	.	4a#X\	.	.	.	.	.
1B	.	1B	.	2d\	mi-	4b\	.	2.dd\	.	.	.
.	.	.	.	.	.	4f#\	.	.	.	.	.
.	.	.	.	2f#\	-se-	[<2b\	.	.	.	.	.
.	.	.	.	.	.	.	.	4ee\	.	.	.
!	!	!	!	!LO:LB:g=original	!	!LO:LB:g=original	!	!	!	!	!
=45	=45	=45	=45	=45	=45	=45	=45	=45	=45	=45	=45
!	!	!	!	!	!	!LO:TX:a:t=P:problem=zakończenie ligatury na górze	!	!	!	!	!
2E\	.	2E\	.	2gn\	-ra-	4b\]	.	2.ccn\	.	0ryy	0ryy
.	.	.	.	.	.	4g\	.	.	.	.	.
2F#\	.	2F#\	.	4f#X\	.	[2a\	.	.	.	.	.
.	.	.	.	4e\	.	.	.	4dd\	.	.	.
2G\	.	2G\	-tor	2d\	-tor	4a\]	.	1b	.	.	.
.	.	.	.	.	.	4f#\	.	.	.	.	.
2G\	.	2G\	et	2d\	et	[2g\	.	.	.	.	.
!	!	!	!	!	!	!	!	!LO:LB:g=original	!	!	!
=46	=46	=46	=46	=46	=46	=46	=46	=46	=46	=46	=46
*	*above	*	*	*	*	*	*	*	*	*	*
1D	4	1D	iu-	1d	iu-	2g\]	.	1a	.	0ryy	0ryy
.	3	.	.	.	.	2f#\	.	.	.	.	.
!	!	!LO:LB:g=original	!	!	!	!	!	!	!	!	!
2G\	.	2G\	-stus	1B	-stus	1g	-tor	4g\	-tor	.	.
.	.	.	.	.	.	.	.	4dd\	et	.	.
2G\	.	2G\	et	.	.	.	.	4ee\	mi-	.	.
.	.	.	.	.	.	.	.	4ff#\	-se-	.	.
=47	=47	=47	=47	=47	=47	=47	=47	=47	=47	=47	=47
!	!	!	!	!	!	!LO:TX:t=P:problem=kreska taktowa	!	!	!	!	!
!	!	!	!	!LO:TX:b:t=3	!	!LO:TX:b:t=1	!	!	!	!	!
2G\	.	2G\	mi-	0r	.	1r	.	4gg\	-ra-	0ryy	0ryy
.	.	.	.	.	.	.	.	4g\	.	.	.
2G\	.	2G\	-se-	.	.	.	.	4b\	.	.	.
.	.	.	.	.	.	.	.	4cc\	.	.	.
!LO:LB:g=original	!	!	!	!	!	!LO:LB:g=original	!	!	!	!	!
2D\	#	[1d	-ra-	.	.	4r	.	1dd	-tor	.	.
.	.	.	.	.	.	4d\	et	.	.	.	.
2D\	.	.	.	.	.	4e\	mi-	.	.	.	.
.	.	.	.	.	.	4f#\	-se-	.	.	.	.
=48	=48	=48	=48	=48	=48	=48	=48	=48	=48	=48	=48
!	!	!	!	!LO:TX:t=P:problem=kreska taktowa	!	!	!	!	!	!	!
0D	6 4	0d_	.	1r	.	4g\	-ra-	0dd	mi-	0ryy	0ryy
.	.	.	.	.	.	4G/	.	.	.	.	.
.	.	.	.	.	.	4B/	.	.	.	.	.
.	.	.	.	.	.	4c/	.	.	.	.	.
.	5 3	.	.	4r	.	1d	.	.	.	.	.
.	.	.	.	4d\	et	.	.	.	.	.	.
.	.	.	.	4e\	mi-	.	.	.	.	.	.
.	.	.	.	4f#\	-se-	.	.	.	.	.	.
!	!	!	!	!LO:LB:g=original	!	!	!	!LO:LB:g=original	!	!	!
=49	=49	=49	=49	=49	=49	=49	=49	=49	=49	=49	=49
1D	4	1d]	.	4g\	-ra-	1b	.	0dd	-se-	0ryy	0ryy
.	3	.	.	4G\	.	.	.	.	.	.	.
.	.	.	.	4B\	.	.	.	.	.	.	.
.	.	.	.	4c\	.	.	.	.	.	.	.
!	!	!LO:LB:g=original	!	!	!	!	!	!	!	!	!
4d\	.	4d\	-tor	1d	.	1a	.	.	.	.	.
4D\	.	4D\	et	.	.	.	.	.	.	.	.
4E\	.	4E\	mi-	.	.	.	.	.	.	.	.
4F#\	.	4F#\	-se-	.	.	.	.	.	.	.	.
=50	=50	=50	=50	=50	=50	=50	=50	=50	=50	=50	=50
4G\	.	4G\	-ra-	2B\	.	1g	.	0dd	-ra-	0ryy	0ryy
4GG/	.	4GG/	.	.	.	.	.	.	.	.	.
4BB/	.	4BB/	.	2g\	.	.	.	.	.	.	.
4C/	.	4C/	.	.	.	.	.	.	.	.	.
!	!	!	!	!	!	!LO:LB:g=original	!	!	!	!	!
2D/	.	2D/	-tor	2f#\	-tor	2.f#\	.	.	.	.	.
2D/	.	2d\	et	2d\	et	.	.	.	.	.	.
.	.	.	.	.	.	4g\	.	.	.	.	.
!LO:LB:g=original	!	!	!	!	!	!	!	!	!	!	!
=51	=51	=51	=51	=51	=51	=51	=51	=51	=51	=51	=51
2D\	.	2d\	mi-	2d\	mi-	2a\	-tor	2dd\	-tor	0ryy	0ryy
2D\	6 4	2d\	-se-	2d\	-se-	2b-X\	et	2gg\	et	.	.
!	!	!	!	!LO:LB:g=original	!	!	!	!	!	!	!
1D	5 #3	[1d	-ra-	[1d	-ra-	4a\	mi-	4ff#X\	mi-	.	.
.	.	.	.	.	.	4f#X\	-se-	4dd\	.	.	.
.	.	.	.	.	.	2g\	-ra-	2ee-X\	-se-	.	.
!	!	!LO:LB:g=original	!	!	!	!	!	!	!	!	!
=52	=52	=52	=52	=52	=52	=52	=52	=52	=52	=52	=52
!LO:TX:t=P:problem=1D poprawione na 0D	!	!	!	!	!	!	!	!	!	!	!
0D	5 3	0d_	.	0d_	.	4f#\	.	4dd\	-ra-	0ryy	0ryy
.	.	.	.	.	.	4g\	.	4b-X\	.	.	.
.	x 7	.	.	.	.	2a\	.	2cc\	.	.	.
!	!	!	!	!	!	!	!	!LO:LB:g=original	!	!	!
.	-6 4	.	.	.	.	2g\	.	2b-X\	.	.	.
.	5 #3	.	.	.	.	2f#X\	-tor	2a\	-tor	.	.
!	!	!	!	!	!	!LO:LB:g=original	!	!	!	!	!
=53	=53	=53	=53	=53	=53	=53	=53	=53	=53	=53	=53
0D	-6 4	0d_	.	0d_	.	2r	.	2r	.	0ryy	0ryy
.	.	.	.	.	.	2b-X\	et	2gg\	et	.	.
.	5 #3	.	.	.	.	4a\	mi-	4ff#X\	mi-	.	.
.	.	.	.	.	.	4f#\	.	4dd\	-se-	.	.
.	.	.	.	.	.	2g\	-se-	2ee-X\	.	.	.
=54	=54	=54	=54	=54	=54	=54	=54	=54	=54	=54	=54
0D	5 #3	0d_	.	0d_<	.	4f#\	-ra-	4dd\	-ra-	0ryy	0ryy
.	.	.	.	.	.	4g\	.	4b-X\	.	.	.
.	x 7	.	.	.	.	2a\	.	2cc\	.	.	.
.	-6 4	.	.	.	.	2g\	.	2b-X\	.	.	.
.	5 #3	.	.	.	.	2f#X\	.	2a\	-tor	.	.
!	!	!	!	!	!	!	!	!LO:LB:g=original	!	!	!
=55	=55	=55	=55	=55	=55	=55	=55	=55	=55	=55	=55
2D\	.	1d]	.	1d]	.	1a	.	1cc	et	0ryy	0ryy
!LO:TX:t=P:problem=kreska taktowa	!	!	!	!	!	!	!	!	!	!	!
2F#X\	6 5	.	.	.	.	.	.	.	.	.	.
!LO:LB:g=original	!	!	!	!	!	!	!	!	!	!	!
*	*below	*	*	*	*	*	*	*	*	*	*
2G\	n 3	2G\	-tor	2d\	-tor	2g\	-tor	2bn\	mi-	.	.
2BBn/	.	2B\	et	2d\	et	2g\	et	4a\	-se-	.	.
.	.	.	.	.	.	.	.	4g\	.	.	.
!	!	!	!	!LO:LB:g=original	!	!LO:LB:g=original	!	!	!	!	!
=56	=56	=56	=56	=56	=56	=56	=56	=56	=56	=56	=56
2C/	.	2c\	iu-	2e\	iu-	2g\	iu-	1a	-ra-	0ryy	0ryy
2D/	#	2d\	.	2d\	.	2f#X\	.	.	.	.	.
!	!	!LO:LB:g=original	!	!	!	!	!	!	!	!	!
2GG/	.	2G\	-stus	2d\	-stus	2g\	-stus	2g\	-tor	.	.
2GG/	.	2G\	et	2d\	et	2b\	et	2gg\	et	.	.
=57	=57	=57	=57	=57	=57	=57	=57	=57	=57	=57	=57
*	*above	*	*	*	*	*	*	*	*	*	*
0D	4 #3	0d	mi-	0d	mi-	(4a\	mi-	4ff#X\	mi-	0ryy	0ryy
.	.	.	.	.	.	4f#\)	.	4dd\	.	.	.
.	.	.	.	.	.	2g\	-se-	2ee-X\	-se-	.	.
.	.	.	.	.	.	4f#\	-ra-	4dd\	-ra-	.	.
.	-6 4	.	.	.	.	4g\	.	4b-X\	.	.	.
.	5 #3	.	.	.	.	2a\	.	2cc\	.	.	.
!	!	!	!	!	!	!	!	!LO:LB:g=original	!	!	!
=58	=58	=58	=58	=58	=58	=58	=58	=58	=58	=58	=58
0D	-6 4	0d	-se-	0d	-se-	2g\	.	2b-X\	.	0ryy	0ryy
.	5 #3	.	.	.	.	2f#X\	-tor	2a\	-tor	.	.
!	!	!	!	!	!	!LO:PB:g=original	!	!	!	!	!
.	.	.	.	.	.	2r	.	2r	.	.	.
.	-6 4	.	.	.	.	2b-X\	et	2gg\	mi-	.	.
!	!	!	!	!LO:LB:g=original	!	!	!	!	!	!	!
=59	=59	=59	=59	=59	=59	=59	=59	=59	=59	=59	=59
0D	5 #3	0d	-ra-	0d	-ra-	4a\	mi-	4ff#X\	.	0ryy	0ryy
.	.	.	.	.	.	4f#\	.	4dd\	.	.	.
.	.	.	.	.	.	2g\	-se-	2ee-X\	-se-	.	.
.	.	.	.	.	.	4f#\	-ra-	4dd\	-ra-	.	.
.	-6 4	.	.	.	.	4g\	.	4b-X\	.	.	.
.	5 #3	.	.	.	.	2a\	.	2cc\	.	.	.
!LO:LB:g=original	!	!	!	!	!	!	!	!	!	!	!
=60	=60	=60	=60	=60	=60	=60	=60	=60	=60	=60	=60
!LO:TX:t=P:problem=kreska taktowa	!	!	!	!	!	!	!	!	!	!	!
1D	-6 4	1.d	-tor	1.d	-tor	2g\	.	2b-X\	.	0ryy	0ryy
.	5 #3	.	.	.	.	2f#\	-tor	2a\	-tor	.	.
!	!	!	!	!	!	!	!	!LO:LB:g=original	!	!	!
2D\	.	.	.	.	.	1a	et	1cc	et	.	.
2F#X\	.	2d\	et	2d\	et	.	.	.	.	.	.
!	!	!LO:LB:g=original	!	!	!	!LO:LB:g=original	!	!	!	!	!
=61	=61	=61	=61	=61	=61	=61	=61	=61	=61	=61	=61
*	*below	*	*	*	*	*	*	*	*	*	*
2G\	n3	2G\	iu-	1d	iu-	1.g	iu-	2bn\	mi-	0ryy	0ryy
2BBn/	.	2B\	.	.	.	.	.	4a\	-se-	.	.
!	!	!	!	!	!	!	!	!LO:TX:t=P:problem=kreska taktowa	!	!	!
.	.	.	.	.	.	.	.	4g\	.	.	.
2C/	.	2c\	.	2e\	.	.	.	1a	-ra-	.	.
2D/	#3	2d\	.	2d\	.	2f#\	.	.	.	.	.
=62	=62	=62	=62	=62	=62	=62	=62	=62	=62	=62	=62
2G\	.	2G\	-stus	2d\	-stus	2g\	-stus	2g\	-tor	0ryy	0ryy
2G\	.	2G\	et	2B\	et	2g\	et	2dd\	et	.	.
!	!	!	!	!LO:LB:g=original	!	!	!	!	!	!	!
2c\	.	2c\	mi-	2c\	mi-	2g\	mi-	2ee\	mi-	.	.
2G\	.	2G\	-se-	2d\	-se-	2g\	-se-	2dd\	-se-	.	.
!LO:LB:g=original	!	!LO:PB:g=original	!	!	!	!	!	!LO:PB:g=original	!	!	!
=63	=63	=63	=63	=63	=63	=63	=63	=63	=63	=63	=63
2C/	.	2C/	ra-	2e\	ra-	1g	ra-	(2cc\	-ra-	0ryy	0ryy
2G\	.	2G\	.	2B\	.	.	.	2dd\)	.	.	.
2c\	.	2c\	-tor	2c\	-tor	2g\	-tor	2ee\	-tor	.	.
2G\	.	2G\	et	2d\	et	2g\	et	2dd\	et	.	.
!	!	!	!	!	!	!LO:LB:g=original	!	!	!	!	!
=64	=64	=64	=64	=64	=64	=64	=64	=64	=64	=64	=64
1C	.	1C	iu-	1e	iu-	1g	iu-	1cc	iu-	0ryy	0ryy
!	!	!	!	!LO:TX:b:t=Uolti Subito	!	!	!	!	!	!	!
1GG;	.	1GG;	-stus	1d	-stus	1g	-stus	1b	-stus	.	.
==	==	==	==	==	==	==	==	==	==	==	==
*-	*-	*-	*-	*-	*-	*-	*-	*-	*-	*-	*-
!!!system-decoration: [g1][g2]s7
!!!RDF**kern: < = below
!!!ENC: Marta Lawrence
!!!END: 2021-03-31
!!!ENC: Katarzyna Serwa
!!!END: 2021-03-18
